Sources/FrostedUI/Resources/Icons.xcassets/profileCircle32.imageset/profile-circle-32.svg

<svg width="32" height="32" viewBox="0 0 32 32" fill="none" xmlns="http://www.w3.org/2000/svg" data-fui-icon="true">
  <path
    d="M16 1C24.2843 1 31 7.71573 31 16C31 20.7298 28.8099 24.947 25.3896 27.6963C25.3633 27.7175 25.337 27.7388 25.3105 27.7598C25.1634 27.8765 25.0139 27.9904 24.8623 28.1016C24.8348 28.1217 24.8069 28.1412 24.7793 28.1611C24.6272 28.2711 24.4737 28.3791 24.3174 28.4834C24.2886 28.5026 24.2594 28.521 24.2305 28.54C24.0693 28.646 23.9066 28.7498 23.7412 28.8496C23.727 28.8582 23.7125 28.8664 23.6982 28.875C23.3396 29.0899 22.971 29.2896 22.5938 29.4746C22.5806 29.4811 22.5679 29.4887 22.5547 29.4951C22.3688 29.5856 22.1803 29.671 21.9902 29.7539C21.9753 29.7604 21.9603 29.767 21.9453 29.7734C21.7619 29.8527 21.5768 29.9289 21.3896 30.001C21.3585 30.013 21.3271 30.0243 21.2959 30.0361C21.1107 30.106 20.9239 30.1726 20.7354 30.2354C20.6695 30.2573 20.6034 30.2788 20.5371 30.2998C20.5085 30.3089 20.4799 30.3182 20.4512 30.3271C20.1374 30.4245 19.8193 30.5119 19.4971 30.5889C19.3784 30.6172 19.2594 30.6444 19.1396 30.6699C19.1201 30.6741 19.1006 30.6785 19.0811 30.6826C19.0171 30.696 18.9529 30.7082 18.8887 30.7207C18.825 30.7331 18.7612 30.7452 18.6973 30.7568C18.6537 30.7647 18.6101 30.7727 18.5664 30.7803C18.4933 30.7929 18.4201 30.8049 18.3467 30.8164C18.2882 30.8256 18.2296 30.8343 18.1709 30.8428C18.1199 30.8502 18.0688 30.8574 18.0176 30.8643C17.951 30.8732 17.8843 30.8816 17.8174 30.8896C17.7592 30.8967 17.701 30.9038 17.6426 30.9102C17.5766 30.9173 17.5105 30.9234 17.4443 30.9297C17.3865 30.9352 17.3286 30.9404 17.2705 30.9453C17.2195 30.9496 17.1684 30.9542 17.1172 30.958C17.0431 30.9635 16.9689 30.9673 16.8945 30.9717C16.8357 30.9751 16.7768 30.9796 16.7178 30.9824C16.6576 30.9853 16.5974 30.9871 16.5371 30.9893C16.4831 30.9912 16.4291 30.9938 16.375 30.9951C16.2504 30.9982 16.1254 31 16 31C15.8743 31 15.749 30.9982 15.624 30.9951C15.5699 30.9938 15.5159 30.9912 15.4619 30.9893C15.4016 30.9871 15.3414 30.9853 15.2812 30.9824C15.2222 30.9796 15.1634 30.9751 15.1045 30.9717C15.0301 30.9673 14.9559 30.9635 14.8818 30.958C14.8306 30.9542 14.7796 30.9496 14.7285 30.9453C14.6705 30.9404 14.6125 30.9352 14.5547 30.9297C14.4885 30.9234 14.4224 30.9173 14.3564 30.9102C14.2981 30.9038 14.2398 30.8967 14.1816 30.8896C14.1148 30.8816 14.048 30.8732 13.9814 30.8643C13.9303 30.8574 13.8792 30.8502 13.8281 30.8428C13.7694 30.8343 13.7108 30.8256 13.6523 30.8164C13.5789 30.8049 13.5057 30.7929 13.4326 30.7803C13.3889 30.7727 13.3453 30.7648 13.3018 30.7568C13.2378 30.7452 13.174 30.7331 13.1104 30.7207C13.0461 30.7082 12.9819 30.696 12.918 30.6826C12.8984 30.6785 12.8789 30.6741 12.8594 30.6699C12.7397 30.6444 12.6206 30.6172 12.502 30.5889C12.1797 30.5119 11.8616 30.4246 11.5479 30.3271C11.5191 30.3182 11.4906 30.3089 11.4619 30.2998C11.3956 30.2788 11.3296 30.2573 11.2637 30.2354C11.0751 30.1726 10.8883 30.1061 10.7031 30.0361C10.6719 30.0243 10.6405 30.013 10.6094 30.001C10.4222 29.9289 10.2371 29.8527 10.0537 29.7734C10.0387 29.767 10.0238 29.7604 10.0088 29.7539C9.81901 29.6711 9.63091 29.5854 9.44531 29.4951C9.43183 29.4886 9.41873 29.4812 9.40527 29.4746C9.02801 29.2896 8.65941 29.0899 8.30078 28.875C8.28651 28.8664 8.27205 28.8582 8.25781 28.8496C8.09244 28.7498 7.92968 28.646 7.76855 28.54C7.73966 28.521 7.7104 28.5026 7.68164 28.4834C7.52538 28.3791 7.37177 28.2711 7.21973 28.1611C7.19213 28.1412 7.16418 28.1217 7.13672 28.1016C6.98513 27.9903 6.83566 27.8765 6.68848 27.7598C6.66198 27.7388 6.63572 27.7175 6.60938 27.6963C3.18944 24.947 1 20.7295 1 16C1 7.71573 7.71573 1 16 1ZM16 24C12.9311 24 10.1044 25.0254 7.83691 26.75C7.91924 26.8126 8.00117 26.8758 8.08496 26.9365C8.22102 27.0352 8.3592 27.131 8.49902 27.2246C8.53728 27.2502 8.57573 27.2755 8.61426 27.3008C8.74661 27.3875 8.8801 27.4726 9.01562 27.5547C9.37453 27.7721 9.74428 27.9733 10.124 28.1572C10.2785 28.232 10.4351 28.303 10.5928 28.3721C10.6149 28.3818 10.637 28.3918 10.6592 28.4014C10.8126 28.4675 10.9677 28.5302 11.124 28.5908C11.1689 28.6082 11.2137 28.6257 11.2588 28.6426C11.4179 28.7023 11.5783 28.7597 11.7402 28.8135C12.1349 28.9446 12.5374 29.0586 12.9473 29.1533C13.1127 29.1916 13.2795 29.2257 13.4473 29.2578C13.484 29.2648 13.5208 29.2716 13.5576 29.2783C13.7307 29.3099 13.9048 29.3383 14.0801 29.3633C14.1094 29.3675 14.1386 29.372 14.168 29.376C14.3472 29.4003 14.5276 29.4213 14.709 29.4385C14.7344 29.4409 14.7597 29.443 14.7852 29.4453C14.971 29.4619 15.1578 29.4744 15.3457 29.4834C15.3691 29.4845 15.3926 29.4853 15.416 29.4863C15.6097 29.4946 15.8043 29.5 16 29.5C16.1954 29.5 16.3897 29.4945 16.583 29.4863C16.6065 29.4853 16.6299 29.4845 16.6533 29.4834C16.8412 29.4744 17.0281 29.4619 17.2139 29.4453C17.2393 29.443 17.2647 29.4409 17.29 29.4385C17.4715 29.4213 17.6518 29.4003 17.8311 29.376C17.8604 29.372 17.8897 29.3674 17.9189 29.3633C18.0942 29.3383 18.2684 29.3099 18.4414 29.2783C18.4782 29.2716 18.515 29.2648 18.5518 29.2578C18.7195 29.2257 18.8863 29.1916 19.0518 29.1533C19.4617 29.0586 19.8641 28.9446 20.2588 28.8135C20.4207 28.7597 20.5811 28.7023 20.7402 28.6426C20.7853 28.6257 20.8301 28.6082 20.875 28.5908C21.0313 28.5303 21.1864 28.4675 21.3398 28.4014C21.3621 28.3918 21.3841 28.3818 21.4062 28.3721C21.564 28.3031 21.7205 28.232 21.875 28.1572C22.2548 27.9733 22.6245 27.7721 22.9834 27.5547C23.1189 27.4726 23.2524 27.3875 23.3848 27.3008C23.4233 27.2755 23.4617 27.2502 23.5 27.2246C23.6398 27.131 23.778 27.0352 23.9141 26.9365C23.9979 26.8758 24.0798 26.8126 24.1621 26.75C21.8948 25.0256 19.0686 24 16 24ZM16 2.5C8.54416 2.5 2.5 8.54416 2.5 16C2.5 19.8355 4.09964 23.2972 6.66797 25.7549C9.229 23.7175 12.4733 22.5 16 22.5C19.5265 22.5 22.7701 23.7178 25.3311 25.7549C27.8997 23.2972 29.5 19.8357 29.5 16C29.5 8.54416 23.4558 2.5 16 2.5ZM16 8.5C19.0376 8.5 21.5 10.9624 21.5 14C21.5 17.0376 19.0376 19.5 16 19.5C12.9624 19.5 10.5 17.0376 10.5 14C10.5 10.9624 12.9624 8.5 16 8.5ZM16 10C13.7909 10 12 11.7909 12 14C12 16.2091 13.7909 18 16 18C18.2091 18 20 16.2091 20 14C20 11.7909 18.2091 10 16 10Z"
    fill="currentColor"
  />
</svg>

<svg xmlns="http://www.w3.org/2000/svg" width="32" height="32" fill="none" data-fui-icon="true" viewBox="0 0 32 32"><path fill="currentColor" d="M16 1c8.284 0 15 6.716 15 15 0 4.73-2.19 8.947-5.61 11.696l-.08.064q-.22.174-.448.342l-.083.06q-.227.165-.462.321-.043.03-.087.057-.24.16-.489.31l-.043.025q-.538.322-1.104.6l-.04.02q-.278.135-.564.259l-.045.02q-.274.119-.555.227l-.094.035a15 15 0 0 1-.759.264l-.086.027a15 15 0 0 1-1.311.343l-.059.013-.192.038-.192.036-.13.023a15 15 0 0 1-.75.11l-.174.02-.199.02-.174.015q-.076.008-.153.013-.11.009-.223.014-.087.006-.176.01l-.18.007-.163.006a15 15 0 0 1-.751 0l-.162-.006-.18-.007q-.09-.004-.178-.01l-.222-.014-.153-.013-.174-.015-.199-.02a15 15 0 0 1-.704-.094 15 15 0 0 1-.542-.095l-.192-.038-.059-.013a15 15 0 0 1-1.311-.343l-.086-.027a15 15 0 0 1-.759-.264l-.094-.035a15 15 0 0 1-.555-.228l-.045-.02q-.285-.123-.564-.258l-.04-.02a15 15 0 0 1-1.104-.6l-.043-.025q-.248-.15-.49-.31-.043-.028-.086-.057-.235-.157-.462-.322l-.083-.06a15 15 0 0 1-.449-.341l-.079-.064A14.97 14.97 0 0 1 1 16C1 7.716 7.716 1 16 1m0 23a13.44 13.44 0 0 0-8.163 2.75q.123.095.248.186a13 13 0 0 0 .93.619 13.5 13.5 0 0 0 1.578.817l.066.03q.231.098.465.189l.135.052a13 13 0 0 0 1.688.51 13 13 0 0 0 1.133.21l.088.013q.27.036.541.063l.076.006q.28.026.56.038l.071.003a14 14 0 0 0 1.167 0q.036 0 .07-.003.282-.013.56-.038l.077-.006q.272-.027.541-.063l.088-.013a13.6 13.6 0 0 0 2.821-.72l.135-.052q.234-.09.465-.19l.066-.029a13 13 0 0 0 1.577-.817 14 14 0 0 0 .931-.619q.125-.09.248-.186A13.43 13.43 0 0 0 16 24m0-21.5C8.544 2.5 2.5 8.544 2.5 16c0 3.835 1.6 7.297 4.168 9.755A14.94 14.94 0 0 1 16 22.5a14.94 14.94 0 0 1 9.331 3.255A13.46 13.46 0 0 0 29.5 16c0-7.456-6.044-13.5-13.5-13.5m0 6a5.5 5.5 0 1 1 0 11 5.5 5.5 0 0 1 0-11m0 1.5a4 4 0 1 0 0 8 4 4 0 0 0 0-8"/></svg>
